X:155
T: Ach Mutter, liebe Mutter,
N: D0262
O: Europa, Mitteleuropa, Deutschland, Rheinland, Koeln
N: Inzipit = Variante zum Lied
R: Liebes - Ballade
M: 2/4
L: 1/16
K: G
D2 | B3BB3A | A4G2
D2 | c2c2cBdB | A4z2
D2 | d3ed2c2 | B4dc
BA | G2G2BAGA | G4
A4 | B2B2dcA2 | G4z2

